X:3
T:tests
C:Ali Corbin
M:3/2
L:1/2
Q:1/2=100
K:Dmin
%%MIDI program 1 61
%%MIDI program 2 41 % Viola
%%MIDI program 3 41 % Viola
V:Top name="Top" snm="Top"
F//f//d//d'// A//a//A//d// A/>z/|D//d//=B//b// F//f//F//B// F/>z/|=B,//B//G//g// D//d//D//G// D/>z/| 
E//e//=B//b// G//g//G//B// G/>z/|G//g//c//c'// =B//b//B//d// B/>z/|=B//g//c//c'// B//b//B//d// B/>z/|e3||
V:Melody name="Melody" snm="Mel"
c2 (A/2G/2)|A2 (G/2F/2)|D2 (C/2A,/2)|C2 ^C|D2 (^C/2D/2)|F2 (G/2F/2)|D3||
V:Ground name="Ground" snm="Gr."
D3|F3|z3|D3-|D3|_E3-|_E3||


